images/footer-bg.svg

<svg fill="none" height="292" viewBox="0 0 1122 292" width="1122" xmlns="http://www.w3.org/2000/svg"><path d="m.0382109 292v-277.4536h83.1944891v106.9046h82.3623v-106.9046h83.195v277.4536h-83.195v-103.993h-82.3623v103.993zm399.9737891 6.24c-21.908 0-41.32-4.437-58.236-13.312-16.916-8.874-30.089-21.353-39.518-37.437-9.428-16.362-14.143-35.358-14.143-56.988 0-37.16 9.429-66.14 28.287-86.939 19.134-21.0755 46.727-31.6134 82.778-31.6134 23.572 0 42.707 4.9916 57.404 14.975 14.698 9.9833 25.513 25.0974 32.446 45.3414 7.21 19.966 10.677 44.925 10.399 74.875h-157.653l-9.984-44.509h102.746l-7.904 25.79c-.277-23.017-2.773-38.824-7.487-47.421-4.437-8.874-12.341-13.311-23.711-13.311-5.269 0-10.399 1.802-15.391 5.408-4.991 3.327-9.012 8.874-12.063 16.638-3.05 7.488-4.576 17.61-4.576 30.366 0 18.026 4.299 31.892 12.896 41.598 8.596 9.706 23.294 14.559 44.093 14.559 6.932 0 14.004-.971 21.214-2.912s14.005-4.021 20.383-6.24c6.378-2.496 11.647-4.298 15.807-5.407v62.811c-9.706 3.606-20.799 6.795-33.278 9.568s-27.315 4.16-44.509 4.16zm211.879-6.24h-74.875v-291.18073h74.875zm124.711 0h-74.875v-291.18073h74.875zm148.837 6.24c-36.883 0-64.753-9.429-83.611-28.287-18.58-18.857-27.87-47.282-27.87-85.274 0-41.32 9.29-70.438 27.87-87.3541 18.858-16.9162 46.728-25.3743 83.611-25.3743 24.126 0 44.509 3.7437 61.148 11.2312 16.916 7.2102 29.672 19.1352 38.269 35.7732 8.874 16.362 13.311 38.27 13.311 65.724 0 37.992-9.706 66.417-29.118 85.274-19.412 18.858-47.282 28.287-83.61 28.287zm0-59.069c7.487 0 14.004-1.802 19.551-5.407 5.823-3.883 10.26-9.845 13.311-17.887 3.327-8.042 4.991-18.441 4.991-31.198 0-15.252-1.664-26.761-4.991-34.526-3.051-7.764-7.488-13.033-13.311-15.807-5.547-2.773-12.064-4.159-19.551-4.159-7.765 0-14.421 1.386-19.967 4.159-5.546 2.774-9.706 8.043-12.479 15.807-2.773 7.765-4.16 19.274-4.16 34.526 0 19.689 3.051 33.694 9.152 42.013 6.378 8.32 15.529 12.479 27.454 12.479zm155.841 99.418 30.78-81.531h57.82l-39.94 81.531z" fill="#fff" opacity=".02"/></svg>

<svg width="1122" height="292" viewBox="0 0 1122 292" fill="none" xmlns="http://www.w3.org/2000/svg">
<path opacity="0.02" d="M0.0382109 292V14.5464H83.2327V121.451H165.595V14.5464H248.79V292H165.595V188.007H83.2327V292H0.0382109ZM400.012 298.24C378.104 298.24 358.692 293.803 341.776 284.928C324.86 276.054 311.687 263.575 302.258 247.491C292.83 231.129 288.115 212.133 288.115 190.503C288.115 153.343 297.544 124.363 316.402 103.564C335.536 82.4885 363.129 71.9506 399.18 71.9506C422.752 71.9506 441.887 76.9422 456.584 86.9256C471.282 96.9089 482.097 112.023 489.03 132.267C496.24 152.233 499.707 177.192 499.429 207.142H341.776L331.792 162.633H434.538L426.634 188.423C426.357 165.406 423.861 149.599 419.147 141.002C414.71 132.128 406.806 127.691 395.436 127.691C390.167 127.691 385.037 129.493 380.045 133.099C375.054 136.426 371.033 141.973 367.982 149.737C364.932 157.225 363.406 167.347 363.406 180.103C363.406 198.129 367.705 211.995 376.302 221.701C384.898 231.407 399.596 236.26 420.395 236.26C427.327 236.26 434.399 235.289 441.609 233.348C448.819 231.407 455.614 229.327 461.992 227.108C468.37 224.612 473.639 222.81 477.799 221.701V284.512C468.093 288.118 457 291.307 444.521 294.08C432.042 296.853 417.206 298.24 400.012 298.24ZM611.891 292H537.016V0.81927H611.891V292ZM736.602 292H661.727V0.81927H736.602V292ZM885.439 298.24C848.556 298.24 820.686 288.811 801.828 269.953C783.248 251.096 773.958 222.671 773.958 184.679C773.958 143.359 783.248 114.241 801.828 97.3249C820.686 80.4087 848.556 71.9506 885.439 71.9506C909.565 71.9506 929.948 75.6943 946.587 83.1818C963.503 90.392 976.259 102.317 984.856 118.955C993.73 135.317 998.167 157.225 998.167 184.679C998.167 222.671 988.461 251.096 969.049 269.953C949.637 288.811 921.767 298.24 885.439 298.24ZM885.439 239.171C892.926 239.171 899.443 237.369 904.99 233.764C910.813 229.881 915.25 223.919 918.301 215.877C921.628 207.835 923.292 197.436 923.292 184.679C923.292 169.427 921.628 157.918 918.301 150.153C915.25 142.389 910.813 137.12 904.99 134.346C899.443 131.573 892.926 130.187 885.439 130.187C877.674 130.187 871.018 131.573 865.472 134.346C859.926 137.12 855.766 142.389 852.993 150.153C850.22 157.918 848.833 169.427 848.833 184.679C848.833 204.368 851.884 218.373 857.985 226.692C864.363 235.012 873.514 239.171 885.439 239.171ZM1041.28 338.589L1072.06 257.058H1129.88L1089.94 338.589H1041.28Z" fill="white"/>
</svg>
